packages/homepage/src/assets/icons/home-react.svg

<svg fill="none" height="44" viewBox="0 0 44 44" width="44" xmlns="http://www.w3.org/2000/svg" xmlns:xlink="http://www.w3.org/1999/xlink"><clipPath id="a"><path d="m0 0h44v44h-44z"/></clipPath><g clip-path="url(#a)"><path d="m36.2829 14.7257c-.4578-.1577-.9321-.3067-1.4205-.4477.0802-.3276.154-.651.2195-.9689 1.0752-5.21984.3721-9.42496-2.0287-10.80946-2.302-1.32756-6.067.05664-9.8694 3.36575-.3657.3182-.7323.65509-1.0989 1.00817-.2442-.23361-.488-.45935-.7312-.67528-3.9851-3.53832-7.9794-5.02942-10.3779-3.64092-2.2999 1.33142-2.981 5.28463-2.01303 10.23144.09346.4779.20274.9658.32629 1.462-.56533.1604-1.11109.3315-1.63328.5135-4.67202 1.6288-7.65578 4.1817-7.65578 6.8296 0 2.7348 3.20308 5.4781 8.06935 7.1412.38403.1313.78251.2555 1.19316.3733-.1333.5366-.24923 1.0623-.34656 1.5752-.92295 4.8611-.20219 8.7208 2.09165 10.0439 2.3693 1.3662 6.3456-.0383 10.2174-3.4228.306-.2674.6132-.5511.9209-.8486.3988.3841.7969.7475 1.1931 1.0884 3.7503 3.2274 7.4545 4.5305 9.7461 3.2039 2.367-1.3702 3.1362-5.5166 2.1375-10.5613-.0762-.3854-.1651-.7789-.2647-1.1795.2793-.0825.5534-.1678.8207-.2564 5.059-1.6762 8.3504-4.3858 8.3504-7.1573 0-2.6574-3.0799-5.2276-7.8461-6.8682zm-1.0973 12.236c-.2412.08-.4889.1571-.7411.232-.5585-1.768-1.3122-3.6481-2.2347-5.5905.8803-1.8963 1.6049-3.7522 2.1478-5.5089.4513.1307.8894.2685 1.3117.4139 4.0837 1.4057 6.5745 3.4842 6.5745 5.0857 0 1.706-2.6901 3.9206-7.0582 5.3678zm-1.8124 3.5915c.4417 2.2307.5047 4.2476.2121 5.8242-.2627 1.4167-.7913 2.3613-1.4448 2.7395-1.3908.805-4.3647-.2414-7.5722-3.0013-.3676-.3164-.738-.6543-1.1096-1.0119 1.2435-1.36 2.4862-2.9408 3.699-4.6967 2.1334-.1893 4.1488-.4988 5.9767-.9214.0899.3633.1699.7195.2388 1.0676zm-18.3286 8.4246c-1.3588.4798-2.4409.4936-3.0951.1164-1.392-.8027-1.97062-3.902-1.1813-8.059.0904-.4761.198-.9652.3221-1.4651 1.8077.3997 3.8084.6875 5.9468.8608 1.2211 1.7181 2.4998 3.2973 3.7882 4.6801-.2815.2717-.5619.5306-.8407.7744-1.7123 1.4965-3.4279 2.5584-4.94 3.0924zm-6.36556-12.0264c-2.15177-.7355-3.92879-1.6914-5.14685-2.7345-1.0945-.9373-1.64709-1.8679-1.64709-2.623 0-1.6069 2.39568-3.6563 6.39122-5.0494.48481-.1691.99231-.3284 1.51898-.478.5522 1.7962 1.2766 3.6743 2.1508 5.5733-.8855 1.9274-1.6202 3.8353-2.17782 5.6526-.37546-.1079-.73921-.2216-1.08924-.341zm2.13376-14.5246c-.82929-4.23833-.2785-7.43559 1.1075-8.23789 1.4764-.8547 4.7409.36391 8.1817 3.41908.2199.19528.4407.39966.6621.61112-1.2822 1.37672-2.549 2.94409-3.7592 4.65199-2.0754.1924-4.0621.5014-5.8887.9152-.1149-.4619-.2166-.9158-.3034-1.3595zm19.0353 4.7003c-.4367-.7543-.8849-1.4905-1.3419-2.2069 1.4079.178 2.7569.4142 4.0239.7034-.3805 1.219-.8545 2.4934-1.4126 3.8-.4002-.7601-.8236-1.5264-1.2694-2.2965zm-7.7625-7.56072c.8695.94202 1.7403 1.99382 2.5968 3.13502-.8631-.0408-1.7369-.0621-2.6179-.0621-.8727 0-1.74.0208-2.5978.0608.8573-1.1305 1.7358-2.1808 2.6189-3.13372zm-7.8123 7.57382c-.4362.7564-.8517 1.5184-1.2457 2.2819-.549-1.302-1.0186-2.5823-1.4023-3.8184 1.2591-.2818 2.6018-.5121 4.0007-.6869-.4634.723-.9154 1.4648-1.3527 2.2233zm1.3931 11.2654c-1.4455-.1613-2.8083-.3798-4.0671-.6538.3898-1.2584.8698-2.5659 1.4304-3.8959.395.763.8123 1.5254 1.2511 2.2833h.0001c.4469.7723.9101 1.5287 1.3855 2.2664zm6.4714 5.3488c-.8935-.964-1.7847-2.0303-2.6552-3.1773.845.033 1.7064.0501 2.5819.0501.8995 0 1.7886-.0203 2.6638-.0594-.8593 1.1678-1.727 2.2359-2.5905 3.1866zm8.9977-9.9663c.5899 1.3443 1.0871 2.6452 1.4819 3.882-1.2794.2918-2.6608.527-4.1163.7016.4581-.7259.9101-1.475 1.3545-2.2454.4496-.7796.8764-1.5603 1.2799-2.3382zm-2.9128 1.3964c-.6899 1.1959-1.3981 2.3378-2.117 3.4156-1.3095.0937-2.6624.1418-4.0412.1418-1.3733 0-2.709-.0426-3.9954-.1261-.748-1.0919-1.4716-2.2371-2.157-3.4211h.0002c-.6836-1.1808-1.3129-2.3714-1.883-3.5555.57-1.1868 1.1976-2.3789 1.8773-3.5575l-.0001.0003c.6814-1.1819 1.3986-2.3214 2.1397-3.4065 1.3124-.0992 2.6581-.1509 4.0182-.1509h.0001c1.3662 0 2.7137.0522 4.0258.1522.7296 1.0771 1.442 2.213 2.1261 3.395.692 1.1952 1.3276 2.3793 1.9024 3.5406-.573 1.1814-1.2073 2.3774-1.8961 3.5721zm3.8888-21.05168c1.4777.85218 2.0525 4.28903 1.124 8.79588-.0591.2875-.1259.5803-.1984.8773-1.8307-.4225-3.8188-.7369-5.9003-.9321-1.2125-1.7268-2.4691-3.2966-3.7304-4.65565.3391-.32623.6777-.63727 1.0149-.93082 3.2579-2.83522 6.303-3.95463 7.6902-3.15461zm-10.047 13.52058c2.1762 0 3.9405 1.7642 3.9405 3.9405 0 2.1764-1.7643 3.9407-3.9405 3.9407-2.1763 0-3.9405-1.7643-3.9405-3.9407 0-2.1763 1.7642-3.9405 3.9405-3.9405z" fill="#fff"/></g></svg>

<svg width="44" height="44" viewBox="0 0 44 44" fill="none" xmlns="http://www.w3.org/2000/svg">
<g clip-path="url(#clip0)">
<path d="M36.2829 14.7257C35.8251 14.568 35.3508 14.419 34.8624 14.278C34.9426 13.9504 35.0164 13.627 35.0819 13.3091C36.1571 8.08926 35.454 3.88414 33.0532 2.49964C30.7512 1.17208 26.9862 2.55628 23.1838 5.86539C22.8181 6.18359 22.4515 6.52048 22.0849 6.87356C21.8407 6.63995 21.5969 6.41421 21.3537 6.19828C17.3686 2.65996 13.3743 1.16886 10.9758 2.55736C8.6759 3.88878 7.9948 7.84199 8.96277 12.7888C9.05623 13.2667 9.16551 13.7546 9.28906 14.2508C8.72373 14.4112 8.17797 14.5823 7.65578 14.7643C2.98376 16.3931 0 18.946 0 21.5939C0 24.3287 3.20308 27.072 8.06935 28.7351C8.45338 28.8664 8.85186 28.9906 9.26251 29.1084C9.12921 29.645 9.01328 30.1707 8.91595 30.6836C7.993 35.5447 8.71376 39.4044 11.0076 40.7275C13.3769 42.0937 17.3532 40.6892 21.225 37.3047C21.531 37.0373 21.8382 36.7536 22.1459 36.4561C22.5447 36.8402 22.9428 37.2036 23.339 37.5445C27.0893 40.7719 30.7935 42.075 33.0851 40.7484C35.4521 39.3782 36.2213 35.2318 35.2226 30.1871C35.1464 29.8017 35.0575 29.4082 34.9579 29.0076C35.2372 28.9251 35.5113 28.8398 35.7786 28.7512C40.8376 27.075 44.129 24.3654 44.129 21.5939C44.129 18.9365 41.0491 16.3663 36.2829 14.7257ZM35.1856 26.9617C34.9444 27.0417 34.6967 27.1188 34.4445 27.1937C33.886 25.4257 33.1323 23.5456 32.2098 21.6032C33.0901 19.7069 33.8147 17.851 34.3576 16.0943C34.8089 16.225 35.247 16.3628 35.6693 16.5082C39.753 17.9139 42.2438 19.9924 42.2438 21.5939C42.2438 23.2999 39.5537 25.5145 35.1856 26.9617ZM33.3732 30.5532C33.8149 32.7839 33.8779 34.8008 33.5853 36.3774C33.3226 37.7941 32.794 38.7387 32.1405 39.1169C30.7497 39.9219 27.7758 38.8755 24.5683 36.1156C24.2007 35.7992 23.8303 35.4613 23.4587 35.1037C24.7022 33.7437 25.9449 32.1629 27.1577 30.407C29.2911 30.2177 31.3065 29.9082 33.1344 29.4856C33.2243 29.8489 33.3043 30.2051 33.3732 30.5532ZM15.0446 38.9778C13.6858 39.4576 12.6037 39.4714 11.9495 39.0942C10.5575 38.2915 9.97888 35.1922 10.7682 31.0352C10.8586 30.5591 10.9662 30.07 11.0903 29.5701C12.898 29.9698 14.8987 30.2576 17.0371 30.4309C18.2582 32.149 19.5369 33.7282 20.8253 35.111C20.5438 35.3827 20.2634 35.6416 19.9846 35.8854C18.2723 37.3819 16.5567 38.4438 15.0446 38.9778ZM8.67904 26.9514C6.52727 26.2159 4.75025 25.26 3.53219 24.2169C2.43769 23.2796 1.8851 22.349 1.8851 21.5939C1.8851 19.987 4.28078 17.9376 8.27632 16.5445C8.76113 16.3754 9.26863 16.2161 9.7953 16.0665C10.3475 17.8627 11.0719 19.7408 11.9461 21.6398C11.0606 23.5672 10.3259 25.4751 9.76828 27.2924C9.39282 27.1845 9.02907 27.0708 8.67904 26.9514ZM10.8128 12.4268C9.98351 8.18847 10.5343 4.99121 11.9203 4.18891C13.3967 3.33421 16.6612 4.55282 20.102 7.60799C20.3219 7.80327 20.5427 8.00765 20.7641 8.21911C19.4819 9.59583 18.2151 11.1632 17.0049 12.8711C14.9295 13.0635 12.9428 13.3725 11.1162 13.7863C11.0013 13.3244 10.8996 12.8705 10.8128 12.4268ZM29.8481 17.1271C29.4114 16.3728 28.9632 15.6366 28.5062 14.9202C29.9141 15.0982 31.2631 15.3344 32.5301 15.6236C32.1496 16.8426 31.6756 18.117 31.1175 19.4236C30.7173 18.6635 30.2939 17.8972 29.8481 17.1271ZM22.0856 9.56638C22.9551 10.5084 23.8259 11.5602 24.6824 12.7014C23.8193 12.6606 22.9455 12.6393 22.0645 12.6393C21.1918 12.6393 20.3245 12.6601 19.4667 12.7001C20.324 11.5696 21.2025 10.5193 22.0856 9.56638ZM14.2733 17.1402C13.8371 17.8966 13.4216 18.6586 13.0276 19.4221C12.4786 18.1201 12.009 16.8398 11.6253 15.6037C12.8844 15.3219 14.2271 15.0916 15.626 14.9168C15.1626 15.6398 14.7106 16.3816 14.2733 17.1401V17.1402ZM15.6664 28.4056C14.2209 28.2443 12.8581 28.0258 11.5993 27.7518C11.9891 26.4934 12.4691 25.1859 13.0297 23.8559C13.4247 24.6189 13.842 25.3813 14.2808 26.1392H14.2809C14.7278 26.9115 15.191 27.6679 15.6664 28.4056ZM22.1378 33.7544C21.2443 32.7904 20.3531 31.7241 19.4826 30.5771C20.3276 30.6101 21.189 30.6272 22.0645 30.6272C22.964 30.6272 23.8531 30.6069 24.7283 30.5678C23.869 31.7356 23.0013 32.8037 22.1378 33.7544ZM31.1355 23.7881C31.7254 25.1324 32.2226 26.4333 32.6174 27.6701C31.338 27.9619 29.9566 28.1971 28.5011 28.3717C28.9592 27.6458 29.4112 26.8967 29.8556 26.1263C30.3052 25.3467 30.732 24.566 31.1355 23.7881ZM28.2227 25.1845C27.5328 26.3804 26.8246 27.5223 26.1057 28.6001C24.7962 28.6938 23.4433 28.7419 22.0645 28.7419C20.6912 28.7419 19.3555 28.6993 18.0691 28.6158C17.3211 27.5239 16.5975 26.3787 15.9121 25.1947H15.9123C15.2287 24.0139 14.5994 22.8233 14.0293 21.6392C14.5993 20.4524 15.2269 19.2603 15.9066 18.0817L15.9065 18.082C16.5879 16.9001 17.3051 15.7606 18.0462 14.6755C19.3586 14.5763 20.7043 14.5246 22.0644 14.5246H22.0645C23.4307 14.5246 24.7782 14.5768 26.0903 14.6768C26.8199 15.7539 27.5323 16.8898 28.2164 18.0718C28.9084 19.267 29.544 20.4511 30.1188 21.6124C29.5458 22.7938 28.9115 23.9898 28.2227 25.1845ZM32.1115 4.13282C33.5892 4.985 34.164 8.42185 33.2355 12.9287C33.1764 13.2162 33.1096 13.509 33.0371 13.806C31.2064 13.3835 29.2183 13.0691 27.1368 12.8739C25.9243 11.1471 24.6677 9.5773 23.4064 8.21825C23.7455 7.89202 24.0841 7.58098 24.4213 7.28743C27.6792 4.45221 30.7243 3.3328 32.1115 4.13282ZM22.0645 17.6534C24.2407 17.6534 26.005 19.4176 26.005 21.5939C26.005 23.7703 24.2407 25.5346 22.0645 25.5346C19.8882 25.5346 18.124 23.7703 18.124 21.5939C18.124 19.4176 19.8882 17.6534 22.0645 17.6534Z" fill="white"/>
</g>
<defs>
<clipPath id="clip0">
<rect width="44" height="44" fill="white"/>
</clipPath>
</defs>
</svg>
